rospo-light/16x16/places/network-workgroup-symbolic.svg

<svg height="22" width="22" xmlns="http://www.w3.org/2000/svg"><path d="m11 3c-4.4228571 0-8 3.5771429-8 8 0 4.422857 3.5771429 8 8 8 4.422857 0 8-3.577143 8-8 0-4.4228571-3.577143-8-8-8zm-.571429 2.2171429c.08-.011429.171429 0 .251429 0 .01143.034286-.05714.16-.148571.3542857-.5485719 1.2114285-.5828576 2.6285714-.068572 3.3942857.09143.1371428.182857.2628571.182857.2857143 0 .011429-.102857.034286-.217143.034286-.262857 0-.5142853-.16-1.0399996-.5714286-.2285714-.1828574-.5257143-.3314289-.64-.354286-.1828571-.0342857-.2285714-.0228571-.4685714.2057143-.2171429.2285714-.2857143.3428571-.2857143.5371428 0 .7657143.9028572 1.3599999 2.5714283 1.7142859 2.274286.48 2.834286.914286 2.902857 2.114286.08 1.497142-.72 2.628571-2.468571 3.497142-.205714.102858-.342857.148572-.434286.182858-.03429-.01143-.05714 0-.102857 0-.01143-.04571-.03429-.16-.03429-.365715.000004-.788571-.308567-1.611428-.788567-2.068571-.1257143-.125714-.48-.377143-.7771429-.571429-.3085714-.182857-.6171428-.4-.6857142-.502857-.1142858-.148571-.1257143-.24-.034286-.537143.16-.514285.3428572-.811428.72-1.142857.1828572-.171428.3771429-.308571.4228572-.32.045714 0-.2514286-.09143-.6742857-.171428-.4342855-.091429-1.0742855-.274286-1.3942855-.4-.6057143-.217143-1.4057143-.6628576-1.7142858-.9942861-.0114285-.0114286-.0228571-.0228572-.0342857-.0342858.4342857-1.76 1.68-3.2 3.3142857-3.8971428.3428572-.1485714.6971429-.24 1.0742858-.32.1828571-.0342857.3771431-.0571429.5714281-.0685714zm5.36 2.6742857c.125715.08.64 1.1771428.777143 1.7142857.194286.6971427.182857 1.8857147 0 2.5714287-.057143.262857-.148571.502857-.171428.537143-.034286.034285-.137143-.148572-.251429-.354286-.114286-.217143-.502857-.662857-.822857-1.005714-.914286-.971429-1.062857-1.474286-.674286-2.2514289.194286-.3885714 1.04-1.2685714 1.142857-1.2114285z" fill="#5c616c" stroke-width="1.142857"/></svg>

<?xml version="1.0" encoding="UTF-8" standalone="no"?>
<svg
   xmlns:dc="http://purl.org/dc/elements/1.1/"
   xmlns:cc="http://creativecommons.org/ns#"
   xmlns:rdf="http://www.w3.org/1999/02/22-rdf-syntax-ns#"
   xmlns:svg="http://www.w3.org/2000/svg"
   xmlns="http://www.w3.org/2000/svg"
   xmlns:sodipodi="http://sodipodi.sourceforge.net/DTD/sodipodi-0.dtd"
   xmlns:inkscape="http://www.inkscape.org/namespaces/inkscape"
   width="22"
   height="22"
   version="1.1"
   id="svg4"
   sodipodi:docname="network-workgroup-symbolic.svg"
   inkscape:version="0.92.1 r">
  <metadata
     id="metadata10">
    <rdf:RDF>
      <cc:Work
         rdf:about="">
        <dc:format>image/svg+xml</dc:format>
        <dc:type
           rdf:resource="http://purl.org/dc/dcmitype/StillImage" />
      </cc:Work>
    </rdf:RDF>
  </metadata>
  <defs
     id="defs8" />
  <sodipodi:namedview
     pagecolor="#ffffff"
     bordercolor="#666666"
     borderopacity="1"
     objecttolerance="10"
     gridtolerance="10"
     guidetolerance="10"
     inkscape:pageopacity="0"
     inkscape:pageshadow="2"
     inkscape:window-width="769"
     inkscape:window-height="480"
     id="namedview6"
     showgrid="false"
     inkscape:zoom="10.727273"
     inkscape:cx="11"
     inkscape:cy="11"
     inkscape:window-x="0"
     inkscape:window-y="0"
     inkscape:window-maximized="0"
     inkscape:current-layer="svg4" />
  <path
     style="fill:#5c616c;stroke-width:1.14285719"
     d="m 11,3 c -4.4228571,0 -8,3.5771429 -8,8 0,4.422857 3.5771429,8 8,8 4.422857,0 8,-3.577143 8,-8 0,-4.4228571 -3.577143,-8 -8,-8 z m -0.571429,2.2171429 c 0.08,-0.011429 0.171429,0 0.251429,0 0.01143,0.034286 -0.05714,0.16 -0.148571,0.3542857 C 9.9828571,6.7828571 9.9485714,8.2 10.462857,8.9657143 c 0.09143,0.1371428 0.182857,0.2628571 0.182857,0.2857143 0,0.011429 -0.102857,0.034286 -0.217143,0.034286 -0.262857,0 -0.5142853,-0.16 -1.0399996,-0.5714286 C 9.16,8.5314286 8.8628571,8.3828571 8.7485714,8.36 8.5657143,8.3257143 8.52,8.3371429 8.28,8.5657143 8.0628571,8.7942857 7.9942857,8.9085714 7.9942857,9.1028571 c 0,0.7657143 0.9028572,1.3599999 2.5714283,1.7142859 2.274286,0.48 2.834286,0.914286 2.902857,2.114286 0.08,1.497142 -0.72,2.628571 -2.468571,3.497142 -0.205714,0.102858 -0.342857,0.148572 -0.434286,0.182858 -0.03429,-0.01143 -0.05714,0 -0.102857,0 -0.01143,-0.04571 -0.03429,-0.16 -0.03429,-0.365715 C 10.428571,15.457143 10.12,14.634286 9.64,14.177143 9.5142857,14.051429 9.16,13.8 8.8628571,13.605714 c -0.3085714,-0.182857 -0.6171428,-0.4 -0.6857142,-0.502857 -0.1142858,-0.148571 -0.1257143,-0.24 -0.034286,-0.537143 0.16,-0.514285 0.3428572,-0.811428 0.72,-1.142857 0.1828572,-0.171428 0.3771429,-0.308571 0.4228572,-0.32 0.045714,0 -0.2514286,-0.09143 -0.6742857,-0.171428 C 8.1771429,10.84 7.5371429,10.657143 7.2171429,10.531429 6.6114286,10.314286 5.8114286,9.8685714 5.5028571,9.5371429 5.4914286,9.5257143 5.48,9.5142857 5.4685714,9.5028571 c 0.4342857,-1.76 1.68,-3.2 3.3142857,-3.8971428 0.3428572,-0.1485714 0.6971429,-0.24 1.0742858,-0.32 C 10.04,5.2514286 10.234286,5.2285714 10.428571,5.2171429 Z m 5.36,2.6742857 c 0.125715,0.08 0.64,1.1771428 0.777143,1.7142857 0.194286,0.6971427 0.182857,1.8857147 0,2.5714287 C 16.508571,12.44 16.417143,12.68 16.394286,12.714286 16.36,12.748571 16.257143,12.565714 16.142857,12.36 16.028571,12.142857 15.64,11.697143 15.32,11.354286 14.405714,10.382857 14.257143,9.88 14.645714,9.1028571 14.84,8.7142857 15.685714,7.8342857 15.788571,7.8914286 Z"
     id="path2"
     inkscape:connector-curvature="0" />
</svg>
